X:220
T:Via Gellia
% Nottingham Music Database
S:Mick Peat
M:6/8
K:G
D|"G"Gz2"D"Az2|"G"B3 -B2d|"G"BAG "D"A2d|"G"BAG "D"A2D|"G"Gz2"D"Az2|\
"G"B3 -"Em"B2d|"Am"BAG "D"A2F|
P:Fine
"G"G3 ||z2D :|"D"Fz2"A"Gz2|"D"A3 -A2d|"A"c2e "E"B2d|"A"cde A2e|"D"Fz2"A"Gz2|\
"D"A3 -A2d|"Em"Beg "A"a2A|"D"d3
P:DC
D3||
